icons/plexis/48/fillets-ng.svg

<svg viewBox="0 0 48 48" xmlns="http://www.w3.org/2000/svg" xmlns:xlink="http://www.w3.org/1999/xlink">
  <linearGradient id="a" gradientUnits="userSpaceOnUse" x2="0" y1="47" y2="1">
    <stop offset="0" stop-color="#eaeaea"/>
    <stop offset="1" stop-color="#f4f4f4"/>
  </linearGradient>
  <path d="m24 1c22.703 0 23 .297 23 23 0 22.703-.297 23-23 23-22.703 0-23-.297-23-23 0-22.703.297-23 23-23z" fill="url(#a)"/>
  <path d="m25 10a15 15 0 0 0-15 15 15 15 0 0 0  15 15 15 15 0 0 0  15-15 15 15 0 0 0-15-15m0 2a13 13 0 0 1 13 13 13 13 0 0 1-13 13 13 13 0 0 1-13-13 13 13 0 0 1  13-13m8.975 7a .997.997 0 0 0-.676.291c-1.361 1.36-3.078 2.928-4.842 4.4-1.647-1.344-3.227-2.611-4.961-3.481-.968-.487-1.82-.86-2.672-1.05-.852-.186-1.734-.16-2.547.184-1.571.666-3.278 2.522-3.277 5.629 0 3.106 1.706 4.968 3.275 5.637.812.346 1.694.377 2.547.193.853-.184 1.706-.556 2.674-1.039 1.731-.864 3.312-2.126 4.959-3.469 1.765 1.477 3.483 3.05 4.844 4.41a.997.997 0 0 0 1.701-.705v-10a .997.997 0 0 0-1.025-.996zm-14.311 2.029c.214-.012.45.014.732.076.566.125 1.295.426 2.203.883 1.325.666 2.728 1.844 4.164 3-1.434 1.152-2.835 2.324-4.158 2.984-.907.453-1.638.753-2.203.875-.565.122-.936.094-1.344-.08-.869-.37-2.064-1.393-2.064-3.801 0-2.407 1.193-3.428 2.059-3.793.203-.086.397-.135.611-.146zm13.342 1.219v5.494c-.964-.914-1.921-1.82-3.02-2.75 1.098-.928 2.056-1.831 3.02-2.744zm-13.006.252a1 1 0 0 0-1 1 1 1 0 0 0  1 1 1 1 0 0 0  1-1 1 1 0 0 0-1-1z" fill-opacity=".098" fill-rule="evenodd"/>
  <path d="m24 9a15 15 0 0 0-15 15 15 15 0 0 0  15 15 15 15 0 0 0  15-15 15 15 0 0 0-15-15m0 2a13 13 0 0 1 13 13 13 13 0 0 1-13 13 13 13 0 0 1-13-13 13 13 0 0 1  13-13m8.975 7a .997.997 0 0 0-.675.295c-1.362 1.36-3.08 2.925-4.843 4.4-1.647-1.348-3.227-2.615-4.961-3.485-.968-.487-1.82-.86-2.672-1.05-.852-.186-1.734-.16-2.547.184-1.571.666-3.278 2.522-3.277 5.629 0 3.107 1.706 4.968 3.275 5.636.815.346 1.694.378 2.547.194.853-.184 1.706-.553 2.674-1.039 1.734-.864 3.312-2.126 4.959-3.469 1.765 1.477 3.483 3.05 4.845 4.41a.997.997 0 0 0 1.7-.705v-10a .997.997 0 0 0-1.025-1zm-14.311 2.03c.215-.01.446.02.732.08.566.124 1.296.426 2.204.882 1.325.666 2.728 1.844 4.164 3-1.434 1.156-2.835 2.324-4.159 2.985-.907.452-1.637.753-2.203.875-.565.121-.936.093-1.342-.081-.871-.37-2.065-1.393-2.066-3.8-.001-2.408 1.196-3.428 2.056-3.793.206-.09.4-.14.614-.15zm13.346 1.222v5.494c-.97-.914-1.92-1.82-3.024-2.75 1.094-.926 2.054-1.826 3.024-2.744m-13.01.248a1 1 0 0 0-1 1 1 1 0 0 0  1 1 1 1 0 0 0  1-1 1 1 0 0 0-1-1z" fill="#efb811" fill-rule="evenodd"/>
</svg>

<svg xmlns="http://www.w3.org/2000/svg" viewBox="0 0 48 48">
 <defs>
  <linearGradient id="linearGradient3864" y1="47" x2="0" y2="1" gradientUnits="userSpaceOnUse">
   <stop style="stop-color:#eaeaea;stop-opacity:1"/>
   <stop offset="1" style="stop-color:#f4f4f4;stop-opacity:1"/>
  </linearGradient>
 </defs>
 <g>
  
  
  
 </g>
 <g>
  <path d="m 24 1 c 22.703 0 23 0.297 23 23 c 0 22.703 -0.297 23 -23 23 -22.703 0 -23 -0.297 -23 -23 0 -22.703 0.297 -23 23 -23 z" style="fill:url(#linearGradient3864);fill-opacity:1"/>
 </g>
 <g>
  
 </g>
 <path d="M 25 10 A 15 15 0 0 0 10 25 15 15 0 0 0 25 40 15 15 0 0 0 40 25 15 15 0 0 0 25 10 M 25 12 A 13 13 0 0 1 38 25 13 13 0 0 1 25 38 13 13 0 0 1 12 25 13 13 0 0 1 25 12 m 8.975 7 a 0.997 0.997 0 0 0 -0.676 0.291 c -1.361 1.36 -3.078 2.928 -4.842 4.4 C 26.81 22.347 25.23 21.08 23.496 20.21 22.528 19.723 21.676 19.35 20.824 19.16 19.972 18.974 19.09 19 18.277 19.344 16.706 20.01 14.999 21.866 15 24.973 c 0 3.106 1.706 4.968 3.275 5.637 0.812 0.346 1.694 0.377 2.547 0.193 0.853 -0.184 1.706 -0.556 2.674 -1.039 1.731 -0.864 3.312 -2.126 4.959 -3.469 1.765 1.477 3.483 3.05 4.844 4.41 A 0.997 0.997 0 0 0 35 30 l 0 -10 a 0.997 0.997 0 0 0 -1.025 -0.996 z m -14.311 2.029 c 0.214 -0.012 0.45 0.014 0.732 0.076 0.566 0.125 1.295 0.426 2.203 0.883 1.325 0.666 2.728 1.844 4.164 3 -1.434 1.152 -2.835 2.324 -4.158 2.984 -0.907 0.453 -1.638 0.753 -2.203 0.875 -0.565 0.122 -0.936 0.094 -1.344 -0.08 -0.869 -0.37 -2.064 -1.393 -2.064 -3.801 0 -2.407 1.193 -3.428 2.059 -3.793 0.203 -0.086 0.397 -0.135 0.611 -0.146 z m 13.342 1.219 0 5.494 c -0.964 -0.914 -1.921 -1.82 -3.02 -2.75 1.098 -0.928 2.056 -1.831 3.02 -2.744 z M 20 22.5 a 1 1 0 0 0 -1 1 1 1 0 0 0 1 1 1 1 0 0 0 1 -1 1 1 0 0 0 -1 -1 z" mix-blend-mode="normal" isolation="auto" white-space="normal" solid-color="#000000" solid-opacity="1" style="visibility:visible;shape-rendering:auto;color-interpolation-filters:linearRGB;fill:#000;opacity:1;image-rendering:auto;fill-opacity:0.098;stroke:none;display:inline;color:#000;fill-rule:evenodd;color-rendering:auto;color-interpolation:sRGB"/>
 <path d="M 24 9 A 15 15 0 0 0 9 24 15 15 0 0 0 24 39 15 15 0 0 0 39 24 15 15 0 0 0 24 9 M 24 11 A 13 13 0 0 1 37 24 13 13 0 0 1 24 37 13 13 0 0 1 11 24 13 13 0 0 1 24 11 m 8.975 7 A 0.997 0.997 0 0 0 32.3 18.295 c -1.362 1.36 -3.08 2.925 -4.843 4.4 C 25.81 21.347 24.23 20.08 22.496 19.21 21.528 18.723 20.676 18.35 19.824 18.16 18.972 17.974 18.09 18 17.277 18.344 15.706 19.01 13.999 20.866 14 23.973 c 0 3.107 1.706 4.968 3.275 5.636 0.815 0.346 1.694 0.378 2.547 0.194 0.853 -0.184 1.706 -0.553 2.674 -1.039 1.734 -0.864 3.312 -2.126 4.959 -3.469 1.765 1.477 3.483 3.05 4.845 4.41 A 0.997 0.997 0 0 0 34 29 l 0 -10 a 0.997 0.997 0 0 0 -1.025 -1 z m -14.311 2.03 c 0.215 -0.01 0.446 0.02 0.732 0.08 0.566 0.124 1.296 0.426 2.204 0.882 1.325 0.666 2.728 1.844 4.164 3 -1.434 1.156 -2.835 2.324 -4.159 2.985 -0.907 0.452 -1.637 0.753 -2.203 0.875 -0.565 0.121 -0.936 0.093 -1.342 -0.081 -0.871 -0.37 -2.065 -1.393 -2.066 -3.8 -0.001 -2.408 1.196 -3.428 2.056 -3.793 0.206 -0.09 0.4 -0.14 0.614 -0.15 z m 13.346 1.222 0 5.494 C 31.04 25.832 30.09 24.926 28.986 23.996 30.08 23.07 31.04 22.17 32.01 21.252 M 19 21.5 a 1 1 0 0 0 -1 1 1 1 0 0 0 1 1 1 1 0 0 0 1 -1 1 1 0 0 0 -1 -1 z" mix-blend-mode="normal" isolation="auto" white-space="normal" solid-color="#000000" solid-opacity="1" style="visibility:visible;shape-rendering:auto;color-interpolation-filters:linearRGB;fill:#efb811;opacity:1;image-rendering:auto;fill-opacity:1;stroke:none;display:inline;color:#000;fill-rule:evenodd;color-rendering:auto;color-interpolation:sRGB"/>
</svg>
